X:2
T:1. Pour quoy
T:(Ronde 1)
C:Tielman Susato
S:Tileman Susato: Danserye (1551)
R:Ronde
M:4/2
L:1/2
T: Altus
K:C -8va
F>G A/2B/2c/2d/2|ecd2|dBc_B|A2A2::d2cf|eecd|ddcf|ee^c2|
ddec|dded|d2c_B|A2A2|ddec|dded|d2c_B|A2A2:|
